packages/match-icons/product/svg/phone-numbers.svg

<svg fill="none" height="32" viewBox="0 0 32 32" width="32" xmlns="http://www.w3.org/2000/svg"><g fill="#394762"><path d="m18.59 30.3699h-.14c-.2626-.0371-.4996-.1771-.659-.389s-.2281-.4784-.191-.741l.8-5.69c.0172-.1309.0601-.257.1264-.3712.0662-.1142.1544-.2142.2594-.2942.1051-.0799.2249-.1383.3526-.1717.1278-.0334.2608-.0411.3916-.0229.2625.0372.4996.1771.659.389s.2281.4785.191.741l-.8 5.7c-.0359.2368-.1556.4528-.3373.6088-.1817.1559-.4133.2416-.6527.2412z"/><path d="m27 10h-4.68l1.08-7.73c.0371-.26522-.0326-.53432-.1939-.74812-.1613-.21379-.4009-.35475-.6661-.39188s-.5343.03261-.7481.19389c-.2138.16129-.3548.40089-.3919.66611l-1.1 8.01h-6l1.1-7.73c.0371-.26522-.0326-.53432-.1939-.74812-.1613-.21379-.4009-.35475-.6661-.39188s-.5343.03261-.7481.19389c-.2138.16129-.3548.40089-.3919.66611l-1.1 8.01h-6.3c-.26522 0-.51957.1054-.70711.2929-.18753.1875-.29289.4419-.29289.7071s.10536.5196.29289.7071c.18754.1875.44189.2929.70711.2929h6l-1 7h-6c-.26522 0-.51957.1054-.70711.2929-.18753.1875-.29289.4419-.29289.7071s.10536.5196.29289.7071c.18754.1875.44189.2929.70711.2929h5.75l-1.15 8.23c-.03709.2626.03162.5291.19102.741s.39648.3518.65898.389h.14c.2427.0024.4779-.0835.6619-.2418.184-.1582.3041-.3779.3381-.6182l1.18-8.5h13.23c.2652 0 .5196-.1054.7071-.2929s.2929-.4419.2929-.7071-.1054-.5196-.2929-.7071-.4419-.2929-.7071-.2929h-4.95l1-7h5c.2652 0 .5196-.1054.7071-.2929s.2929-.4419.2929-.7071-.1054-.5196-.2929-.7071-.4419-.2929-.7071-.2929zm-8 9h-6l1-7h6z"/></g></svg>

<svg width="32" height="32" viewBox="0 0 32 32" fill="none" xmlns="http://www.w3.org/2000/svg">
<path d="M18.59 30.3699H18.45C18.1874 30.3328 17.9504 30.1928 17.791 29.9809C17.6316 29.769 17.5629 29.5025 17.6 29.2399L18.4 23.5499C18.4172 23.419 18.4601 23.2929 18.5264 23.1787C18.5926 23.0645 18.6808 22.9645 18.7858 22.8845C18.8909 22.8046 19.0107 22.7462 19.1384 22.7128C19.2662 22.6794 19.3992 22.6717 19.53 22.6899C19.7925 22.7271 20.0296 22.867 20.189 23.0789C20.3484 23.2908 20.4171 23.5574 20.38 23.8199L19.58 29.5199C19.5441 29.7567 19.4244 29.9727 19.2427 30.1287C19.061 30.2846 18.8294 30.3703 18.59 30.3699Z" fill="#394762"/>
<path d="M27 10H22.32L23.4 2.27C23.4371 2.00478 23.3674 1.73568 23.2061 1.52188C23.0448 1.30809 22.8052 1.16713 22.54 1.13C22.2748 1.09287 22.0057 1.16261 21.7919 1.32389C21.5781 1.48518 21.4371 1.72478 21.4 1.99L20.3 10H14.3L15.4 2.27C15.4371 2.00478 15.3674 1.73568 15.2061 1.52188C15.0448 1.30809 14.8052 1.16713 14.54 1.13C14.2748 1.09287 14.0057 1.16261 13.7919 1.32389C13.5781 1.48518 13.4371 1.72478 13.4 1.99L12.3 10H6C5.73478 10 5.48043 10.1054 5.29289 10.2929C5.10536 10.4804 5 10.7348 5 11C5 11.2652 5.10536 11.5196 5.29289 11.7071C5.48043 11.8946 5.73478 12 6 12H12L11 19H5C4.73478 19 4.48043 19.1054 4.29289 19.2929C4.10536 19.4804 4 19.7348 4 20C4 20.2652 4.10536 20.5196 4.29289 20.7071C4.48043 20.8946 4.73478 21 5 21H10.75L9.6 29.23C9.56291 29.4926 9.63162 29.7591 9.79102 29.971C9.95042 30.1829 10.1875 30.3228 10.45 30.36H10.59C10.8327 30.3624 11.0679 30.2765 11.2519 30.1182C11.4359 29.96 11.556 29.7403 11.59 29.5L12.77 21H26C26.2652 21 26.5196 20.8946 26.7071 20.7071C26.8946 20.5196 27 20.2652 27 20C27 19.7348 26.8946 19.4804 26.7071 19.2929C26.5196 19.1054 26.2652 19 26 19H21.05L22.05 12H27.05C27.3152 12 27.5696 11.8946 27.7571 11.7071C27.9446 11.5196 28.05 11.2652 28.05 11C28.05 10.7348 27.9446 10.4804 27.7571 10.2929C27.5696 10.1054 27.3152 10 27.05 10H27ZM19 19H13L14 12H20L19 19Z" fill="#394762"/>
</svg>
